X:670
T: MARIA GIENG AUS WANDERN
N: E2059
O: Europa, Mitteleuropa, Deutschland, Mosel - Gegend, Cluesserath
R: geistlich, Marien - Lied, Legende
M: 4/4
L: 1/8
K: G
D2 | G2G2A2dc | B2A2G2
B2 | A2FGAGFE | D4z2
D2 | G2G2A2Ad | d6
dc | BAGAB2A2 | G4z2

